X:1
T:Title
%%score { ( 1 3 ) | ( 2 4 ) }
L:1/8
M:6/8
K:D
V:1 treble nm="Grand Piano"
V:3 treble 
V:2 bass 
V:4 bass 
V:1
 z3 z2[Q:1/4=100] [FA] | [FA]>[=F^G][^FA] [=GB]2 [FA] | F2 E D2 D | [B,D]2 [DB] [DA]2 [DF] | %4
[M:5/8] [CE]-[CE]- [CE]3 |[M:1/8] [CA] |[M:3/4] A>^G A B2 A | %7
 F2[K:bass] [G,CE] [F,D]2[K:treble] [B,E] | [A,DF]2 [F,D] [A,CF]2 [G,CE] | %9
[M:5/8][K:bass] [F,D]-[F,D]- [F,D]3 |[M:1/8][K:treble] [DFA] |[M:3/4] [Fd]>[Fd] [Fd]d- d/c/B | %12
 [FA]3 [DF]2 [FA] | [GB]>[FA] FF- F/E/D |[M:5/8] [CE]-[CE]- [CE]3 |[M:1/8] D |[M:3/4] F>F F G2 G | %17
[M:7/8] A>AA B3 B |[M:3/4] A>A A[Gc]- [Gc]/[GB]/[Gc] |[M:5/8] [Fd]-[Fd]- [Fd]3 |] %20
V:2
 z3 z2 [D,D] | [D,D]>[D,D][D,D] [D,D]2 [D,D] | [D,A,D]2 [D,G,A,] [D,F,A,]2 [D,A,=C] | %3
 [G,,G,]2 [G,,G,] [D,F,]2 [D,A,] |[M:5/8] [A,,A,]-[A,,A,]- [A,,A,]3 |[M:1/8] [G,,G,] | %6
[M:3/4] [D,F,D]>[D,=F,D] [D,^F,D] [D,G,D]2 [D,F,D] | [D,A,D]2 A,, B,,2 G,, | A,,2 A,, A,,2 A,, | %9
[M:5/8] D,-D,- D,3 |[M:1/8] D, | %11
[M:3/4] [D,A,]>[D,A,] [D,A,][K:treble][G,B,G]- [G,B,G]/[G,CG]/[G,DG] | [D,D]3 [D,A,]2 [D,D] | %13
 [D,D]>[D,D] [D,A,D][D,A,D]- [D,A,D]/[C,A,]/[B,,^G,] |[M:5/8] A,3 z2 |[M:1/8] [D,F,] | %16
[M:3/4] [D,A,D]>[D,A,D] [D,A,D] [E,A,C]2 [E,A,C] | %17
[M:7/8] [F,A,D]>[F,A,D][F,A,D][K:treble] [G,D]3 [^G,D=F] | %18
[M:3/4] [A,DF]>[A,DF] [A,DF][K:bass][A,,A,]- [A,,A,]/[A,,A,]/[A,,A,] | %19
[M:5/8] [D,A,]-[D,A,]- [D,A,]3 |] %20
V:3
 x6 | x6 | x6 | x6 |[M:5/8] x5 |[M:1/8] x |[M:3/4] x6 | x2[K:bass] x3[K:treble] x | x6 | %9
[M:5/8][K:bass] x5 |[M:1/8][K:treble] x |[M:3/4] x6 | x6 | x6 |[M:5/8] z z2 G,2 |[M:1/8] x | %16
[M:3/4] x6 |[M:7/8] x7 |[M:3/4] x6 |[M:5/8] x5 |] %20
V:4
 x6 | x6 | x6 | x6 |[M:5/8] x5 |[M:1/8] x |[M:3/4] x6 | x6 | x6 |[M:5/8] x5 |[M:1/8] x | %11
[M:3/4] x3[K:treble] x3 | x6 | x6 |[M:5/8] A,,-A,,- A,,3 |[M:1/8] x |[M:3/4] x6 | %17
[M:7/8] x3[K:treble] x4 |[M:3/4] x3[K:bass] x3 |[M:5/8] x5 |] %20

